app/style/icons/tutorials/lifecycle/lifecycle-slide5-4.svg

<svg fill="none" version="1.1" viewBox="0 0 1160 800" xmlns="http://www.w3.org/2000/svg">
 <path d="M1160 0H0V800H1160V0Z" fill="#fff"/>
 <path d="m1100.7 44.98h-1041.3c-7.732 0-14 6.268-14 14v681.45c0 7.732 6.268 14 14 14h1041.3c7.73 0 14-6.268 14-14v-681.45c0-7.732-6.27-14-14-14z" fill="#C4CBD2"/>
 <path d="m330.52 617.43 62.54-93.42h435.55l-62.53 93.2-435.56 0.22z" fill="#091440"/>
 <path d="m590.52 279.57v320h-25.72c-67.45 0-122.14-71.64-122.14-160s54.69-160 122.14-160h25.72z" fill="#FFC84E"/>
 <path d="m591.23 599.57c67.456 0 122.14-71.634 122.14-160 0-88.365-54.684-160-122.14-160s-122.14 71.635-122.14 160c0 88.366 54.684 160 122.14 160z" fill="#FFC84E"/>
 <path d="m591.23 572.43c52.467 0 95-59.483 95-132.86s-42.533-132.86-95-132.86-95 59.483-95 132.86 42.533 132.86 95 132.86z" fill="#fff"/>
 <path d="m751.07 570.05h-374.48v39.51h374.48v-39.51z" fill="#091440"/>
 <g id="FAVOCONS" transform="matrix(1.6653 0 0 1.6653 543.38 375.66)">
  <polygon points="35.56 33.62 33.57 36 35.56 38.38 61 68.56 63.34 66.6 37.56 36 63.34 5.4 61 3.44" fill="#c1272d"/>
  <polygon points="58.99 70.04 30.3 36 58.99 1.96 56.65 0 28.31 33.62 2.34 2.67 0 4.64 26.32 36 0 67.36 2.34 69.33 28.31 38.38 56.65 72" fill="#1a1a1a"/>
 </g>
</svg>

<svg width="1160" height="800" viewBox="0 0 1160 800" fill="none" xmlns="http://www.w3.org/2000/svg">
<path d="M1160 0H0V800H1160V0Z" fill="white"/>
<path d="M1100.68 44.9805H59.3301C51.5981 44.9805 45.3301 51.2485 45.3301 58.9805V740.43C45.3301 748.162 51.5981 754.43 59.3301 754.43H1100.68C1108.41 754.43 1114.68 748.162 1114.68 740.43V58.9805C1114.68 51.2485 1108.41 44.9805 1100.68 44.9805Z" fill="#C4CBD2"/>
<path d="M330.52 617.43L393.06 524.01H828.61L766.08 617.21L330.52 617.43Z" fill="#091440"/>
<path d="M590.52 279.57V599.57H564.8C497.35 599.57 442.66 527.93 442.66 439.57C442.66 351.21 497.35 279.57 564.8 279.57H590.52Z" fill="#FFC84E"/>
<path d="M591.23 599.57C658.686 599.57 713.37 527.936 713.37 439.57C713.37 351.205 658.686 279.57 591.23 279.57C523.774 279.57 469.09 351.205 469.09 439.57C469.09 527.936 523.774 599.57 591.23 599.57Z" fill="#FFC84E"/>
<path d="M591.23 572.43C643.697 572.43 686.23 512.947 686.23 439.57C686.23 366.193 643.697 306.71 591.23 306.71C538.763 306.71 496.23 366.193 496.23 439.57C496.23 512.947 538.763 572.43 591.23 572.43Z" fill="white"/>
<path d="M570.54 409.68L550.54 379.57H572.06L604 427.63H582.46C580.33 427.658 578.25 428.285 576.46 429.44C574.41 430.77 572.668 432.522 571.35 434.58C569.813 436.951 568.659 439.55 567.93 442.28C566.343 448.236 566.343 454.504 567.93 460.46C568.657 463.191 569.811 465.79 571.35 468.16C572.668 470.221 574.41 471.977 576.46 473.31C578.253 474.458 580.331 475.082 582.46 475.11H590.53L606.29 498.85H582.46C578.121 498.826 573.879 497.567 570.23 495.22C566.072 492.532 562.539 488.982 559.87 484.81C556.768 480.003 554.45 474.734 553 469.2C551.381 463.198 550.574 457.007 550.6 450.79C550.252 441.884 552.031 433.022 555.79 424.94C559.43 417.46 564.64 412.08 570.59 409.68H570.54Z" fill="#091440"/>
<path d="M625.68 469.42L645.5 499.56H624.151L592.51 451.45H613.86C615.993 451.434 618.075 450.806 619.86 449.64C621.9 448.307 623.629 446.55 624.93 444.49C626.454 442.112 627.598 439.511 628.32 436.78C629.907 430.821 629.907 424.55 628.32 418.59C627.6 415.856 626.456 413.251 624.93 410.87C623.625 408.814 621.896 407.058 619.86 405.72C618.072 404.562 615.991 403.938 613.86 403.92H605.86L590.23 379.57H613.87C618.179 379.59 622.39 380.851 626 383.2C630.13 385.902 633.635 389.455 636.281 393.62C639.374 398.436 641.686 403.711 643.13 409.25C644.741 415.261 645.544 421.458 645.521 427.68C645.821 436.648 644.045 445.563 640.331 453.73C636.731 461.29 631.591 466.82 625.701 469.42H625.68Z" fill="#091440"/>
<path d="M751.07 570.05H376.59V609.56H751.07V570.05Z" fill="#091440"/>
</svg>
